X: 203
T: The Minstrel Boy
B: O'Neill's 203
N: "Moderate"
N: "Collected by J.O'Neill"
Z: 1997 by John Chambers <jc@trillian.mit.edu>
M: C
L: 1/8
K:G
D \
| (G3A) (cBAG) | B2d2 g2(fg) | e2d2 (Bcd>B) | A4 G2z :|
d \
| g2f2 e2(fg) | f2e2 d3^d | e3B B2^d2 | (e3/2f//e//d//e/f/) Hg3g |
| (G3A) (cBAG) | B2d2 g2(fg) | e2d2 (Bcd>B) | A4 G2z ||


